media/img/firefox/campaign/families/nested-hearts.svg

<svg width="287" height="276" viewBox="0 0 287 276" fill="none" xmlns="http://www.w3.org/2000/svg">
<g clip-path="url(#clip0_971_3019)">
<path d="M590.595 -234.015C467.05 -357.561 266.592 -357.561 143.047 -234.015C19.5019 -357.561 -180.956 -357.561 -304.501 -234.015C-428.046 -110.47 -428.046 89.9878 -304.501 213.533L143.047 661.081L590.595 213.533C714.141 89.9878 714.141 -110.47 590.595 -234.015Z" fill="#FFFFF2" stroke="#333336" stroke-width="1.96684" stroke-linecap="round" stroke-linejoin="round"/>
<path d="M569.096 -214.636C451.456 -332.277 260.687 -332.277 143.047 -214.636C25.4065 -332.277 -165.362 -332.277 -283.002 -214.636C-400.643 -96.996 -400.643 93.7722 -283.002 211.413L143.047 637.462L569.096 211.413C686.736 93.7722 686.736 -96.996 569.096 -214.636Z" fill="#C7ABFF" stroke="#333336" stroke-width="1.96684" stroke-linecap="round" stroke-linejoin="round"/>
<path d="M547.446 -195.255C435.71 -306.991 254.632 -306.991 143.048 -195.255C31.3121 -306.991 -149.766 -306.991 -261.351 -195.255C-373.086 -83.5197 -373.086 97.5587 -261.351 209.143L143.048 613.541L547.446 209.143C659.182 97.4073 659.182 -83.6711 547.446 -195.255Z" fill="#9059FF" stroke="#333336" stroke-width="1.96684" stroke-linecap="round" stroke-linejoin="round"/>
<path d="M525.794 -175.876C420.115 -281.555 248.726 -281.555 142.895 -175.876C37.2155 -281.555 -134.173 -281.555 -240.004 -175.876C-345.684 -70.1962 -345.684 101.192 -240.004 207.023L142.895 589.923L525.794 207.023C631.474 101.344 631.474 -70.0448 525.794 -175.876Z" fill="#FFABB0" stroke="#333336" stroke-width="1.96684" stroke-linecap="round" stroke-linejoin="round"/>
<path d="M504.297 -156.497C404.522 -256.272 242.823 -256.272 143.048 -156.497C43.2734 -256.272 -118.425 -256.272 -218.2 -156.497C-317.975 -56.7219 -317.975 104.977 -218.2 204.752L143.048 566L504.297 204.752C604.071 104.977 604.071 -56.7219 504.297 -156.497Z" fill="#C4FCE3" stroke="#333336" stroke-width="1.96684" stroke-linecap="round" stroke-linejoin="round"/>
<path d="M485.673 -139.842C391.046 -234.469 237.674 -234.469 143.047 -139.842C48.4202 -234.469 -104.951 -234.469 -199.578 -139.842C-294.206 -45.2146 -294.206 108.157 -199.578 202.784L143.047 545.41L485.673 202.784C580.3 108.157 580.3 -45.2146 485.673 -139.842Z" fill="#F7D5B6" stroke="#333336" stroke-width="1.96684" stroke-linecap="round" stroke-linejoin="round"/>
<path d="M465.99 -122.279C376.813 -211.456 232.223 -211.456 142.895 -122.279C53.7186 -211.456 -90.8716 -211.456 -180.2 -122.279C-269.376 -33.1024 -269.376 111.488 -180.2 200.816L142.895 523.911L465.99 200.816C555.167 111.639 555.167 -32.951 465.99 -122.279Z" fill="#FFFFF2" stroke="#333336" stroke-width="1.96684" stroke-linecap="round" stroke-linejoin="round"/>
<path d="M445.855 -104.111C362.28 -187.686 226.623 -187.686 143.048 -104.111C59.4736 -187.686 -76.1838 -187.686 -159.758 -104.111C-243.333 -20.5364 -243.333 115.121 -159.758 198.696L143.048 501.502L445.855 198.696C529.43 115.121 529.43 -20.5364 445.855 -104.111Z" fill="#C7ABFF" stroke="#333336" stroke-width="1.96684" stroke-linecap="round" stroke-linejoin="round"/>
<path d="M425.564 -85.9423C347.591 -163.915 221.018 -163.915 143.045 -85.9423C65.0723 -163.915 -61.5009 -163.915 -139.474 -85.9423C-217.446 -7.96957 -217.446 118.604 -139.474 196.576L143.045 479.095L425.564 196.576C503.536 118.604 503.536 -7.96957 425.564 -85.9423Z" fill="#F7D5B6" stroke="#333336" stroke-width="1.96684" stroke-linecap="round" stroke-linejoin="round"/>
<path d="M406.942 -69.2887C334.117 -142.114 215.871 -142.114 143.046 -69.2887C70.2211 -142.114 -48.025 -142.114 -120.85 -69.2887C-193.675 3.5363 -193.675 121.782 -120.85 194.607L143.046 458.503L406.942 194.607C479.767 121.782 479.767 3.5363 406.942 -69.2887Z" fill="#FFFFF2" stroke="#333336" stroke-width="1.96684" stroke-linecap="round" stroke-linejoin="round"/>
<path d="M386.655 -51.1193C319.432 -118.342 210.27 -118.342 143.047 -51.1193C75.8237 -118.342 -33.3381 -118.342 -100.561 -51.1193C-167.784 16.1038 -167.784 125.266 -100.561 192.489L143.047 436.097L386.655 192.489C453.878 125.266 453.878 16.1038 386.655 -51.1193Z" fill="#C7ABFF" stroke="#333336" stroke-width="1.96684" stroke-linecap="round" stroke-linejoin="round"/>
<path d="M367.124 -33.5565C305.2 -95.4805 204.971 -95.4805 143.047 -33.5565C81.1234 -95.4805 -19.1057 -95.4805 -81.0297 -33.5565C-142.954 28.3675 -142.954 128.596 -81.0297 190.52L143.047 414.597L367.124 190.52C429.048 128.596 429.048 28.3675 367.124 -33.5565Z" fill="#9059FF" stroke="#333336" stroke-width="1.96684" stroke-linecap="round" stroke-linejoin="round"/>
<path d="M347.138 -14.1769C290.816 -70.499 199.519 -70.499 143.349 -14.1769C87.0268 -70.499 -4.26946 -70.499 -60.4401 -14.1769C-116.762 42.1451 -116.762 133.441 -60.4401 189.612L143.349 393.401L347.138 189.612C403.46 133.29 403.46 41.9937 347.138 -14.1769Z" fill="#FFABB0" stroke="#333336" stroke-width="1.96684" stroke-linecap="round" stroke-linejoin="round"/>
<path d="M328.364 1.11512C277.19 -50.0592 194.22 -50.0592 143.046 1.11512C91.8718 -50.0592 8.90275 -50.0592 -42.2716 1.11512C-93.4459 52.2895 -93.4459 135.258 -42.2716 186.433L143.046 371.751L328.364 186.433C379.538 135.258 379.538 52.2895 328.364 1.11512Z" fill="#C4FCE3" stroke="#333336" stroke-width="1.96684" stroke-linecap="round" stroke-linejoin="round"/>
<path d="M308.532 18.9806C262.808 -26.7432 188.772 -26.7432 143.048 18.9806C97.3244 -26.7432 23.2882 -26.7432 -22.4356 18.9806C-68.1595 64.7044 -68.1595 138.741 -22.4356 184.465L143.048 349.948L308.532 184.465C354.256 138.741 354.256 64.7044 308.532 18.9806Z" fill="#F7D5B6" stroke="#333336" stroke-width="1.96684" stroke-linecap="round" stroke-linejoin="round"/>
<path d="M288.091 37.1483C247.969 -2.97359 183.017 -2.97359 142.895 37.1483C102.773 -2.97359 37.8207 -2.97359 -2.30116 37.1483C-42.4231 77.2702 -42.4231 142.222 -2.30116 182.344L142.895 327.54L288.091 182.344C328.212 142.222 328.212 77.2702 288.091 37.1483Z" fill="#FFFFF2" stroke="#333336" stroke-width="1.96684" stroke-linecap="round" stroke-linejoin="round"/>
<path d="M268.106 55.1649C233.586 20.6449 177.567 20.6449 143.047 55.1649C108.527 20.6449 52.5076 20.6449 17.9876 55.1649C-16.5323 89.6848 -16.5323 145.704 17.9876 180.224L143.047 305.283L268.106 180.224C302.626 145.704 302.626 89.6848 268.106 55.1649Z" fill="#C7ABFF" stroke="#333336" stroke-width="1.96684" stroke-linecap="round" stroke-linejoin="round"/>
<path d="M249.027 72.2743C219.806 43.0534 172.265 43.0534 143.044 72.2743C113.824 43.0534 66.283 43.0534 37.0621 72.2743C7.84127 101.495 7.84127 149.036 37.0621 178.257L143.044 284.239L249.027 178.257C278.248 149.036 278.248 101.495 249.027 72.2743Z" fill="#F7D5B6" stroke="#333336" stroke-width="1.96684" stroke-linecap="round" stroke-linejoin="round"/>
<path d="M229.952 89.3832C205.879 65.3101 166.968 65.3101 143.046 89.3832C118.973 65.3101 80.0625 65.3101 56.1408 89.3832C32.0677 113.456 32.0677 152.367 56.1408 176.289L143.046 263.194L229.952 176.289C254.025 152.216 254.025 113.305 229.952 89.3832Z" fill="#FFFFF2" stroke="#333336" stroke-width="1.96684" stroke-linecap="round" stroke-linejoin="round"/>
<path d="M209.817 107.399C191.346 88.9279 161.368 88.9279 142.897 107.399C124.426 88.9279 94.4477 88.9279 75.9765 107.399C57.5052 125.87 57.5052 155.848 75.9765 174.319L142.897 241.24L209.817 174.319C228.288 155.848 228.288 125.87 209.817 107.399Z" fill="#C7ABFF" stroke="#333336" stroke-width="1.96684" stroke-linecap="round" stroke-linejoin="round"/>
<path d="M189.074 126.023C176.356 113.305 155.765 113.305 143.047 126.023C130.33 113.305 109.739 113.305 97.0208 126.023C84.303 138.741 84.303 159.332 97.0208 172.049L143.047 218.076L189.074 172.049C201.792 159.332 201.792 138.741 189.074 126.023Z" fill="#9059FF" stroke="#333336" stroke-width="1.96684" stroke-linecap="round" stroke-linejoin="round"/>
<path d="M171.813 141.465C163.789 133.44 150.92 133.44 143.047 141.465C135.022 133.44 122.153 133.44 114.28 141.465C106.407 149.489 106.256 162.358 114.28 170.231L143.047 198.998L171.813 170.231C179.838 162.207 179.838 149.338 171.813 141.465Z" fill="#FFABB0" stroke="#333336" stroke-width="1.96684" stroke-linecap="round" stroke-linejoin="round"/>
</g>
<rect x="1.8792" y="2.30938" width="282.335" height="270.93" stroke="black" stroke-width="3.66465"/>
<defs>
<clipPath id="clip0_971_3019">
<rect x="0.046875" y="0.477051" width="286" height="274.595" fill="white"/>
</clipPath>
</defs>
</svg>

<svg width="287" height="276" fill="none" xmlns="http://www.w3.org/2000/svg"><g clip-path="url(#a)" stroke="#333336" stroke-width="1.967" stroke-linecap="round" stroke-linejoin="round"><path d="M590.595-234.015c-123.545-123.546-324.003-123.546-447.548 0-123.545-123.546-324.003-123.546-447.548 0-123.545 123.545-123.545 324.003 0 447.548l447.548 447.548 447.548-447.548c123.546-123.545 123.546-324.003 0-447.548Z" fill="#FFFFF2"/><path d="M569.096-214.636c-117.64-117.641-308.409-117.641-426.049 0-117.64-117.641-308.409-117.641-426.049 0-117.641 117.64-117.641 308.408 0 426.049l426.049 426.049 426.049-426.049c117.64-117.64 117.64-308.409 0-426.049Z" fill="#C7ABFF"/><path d="M547.446-195.255c-111.736-111.736-292.814-111.736-404.398 0-111.736-111.736-292.814-111.736-404.399 0-111.735 111.735-111.735 292.814 0 404.398l404.399 404.398 404.398-404.398c111.736-111.736 111.736-292.814 0-404.398Z" fill="#9059FF"/><path d="M525.794-175.876c-105.679-105.679-277.068-105.679-382.899 0-105.68-105.679-277.068-105.679-382.899 0-105.68 105.68-105.68 277.068 0 382.899l382.899 382.9 382.899-382.9c105.68-105.679 105.68-277.068 0-382.899Z" fill="#FFABB0"/><path d="M504.297-156.497c-99.775-99.775-261.474-99.775-361.249 0-99.775-99.775-261.473-99.775-361.248 0-99.775 99.775-99.775 261.474 0 361.249L143.048 566l361.249-361.248c99.774-99.775 99.774-261.474 0-361.249Z" fill="#C4FCE3"/><path d="M485.673-139.842c-94.627-94.627-247.999-94.627-342.626 0-94.627-94.627-247.998-94.627-342.625 0-94.628 94.627-94.628 247.999 0 342.626L143.047 545.41l342.626-342.626c94.627-94.627 94.627-247.999 0-342.626Z" fill="#F7D5B6"/><path d="M465.99-122.279c-89.177-89.177-233.767-89.177-323.095 0-89.176-89.177-233.767-89.177-323.095 0-89.176 89.177-89.176 233.767 0 323.095l323.095 323.095L465.99 200.816c89.177-89.177 89.177-233.767 0-323.095Z" fill="#FFFFF2"/><path d="M445.855-104.111c-83.575-83.575-219.232-83.575-302.807 0-83.574-83.575-219.232-83.575-302.806 0-83.575 83.575-83.575 219.232 0 302.807l302.806 302.806 302.807-302.806c83.575-83.575 83.575-219.232 0-302.807Z" fill="#C7ABFF"/><path d="M425.564-85.942c-77.973-77.973-204.546-77.973-282.519 0-77.973-77.973-204.546-77.973-282.519 0-77.972 77.972-77.972 204.546 0 282.518l282.519 282.519 282.519-282.519c77.972-77.972 77.972-204.546 0-282.518Z" fill="#F7D5B6"/><path d="M406.942-69.289c-72.825-72.825-191.071-72.825-263.896 0-72.825-72.825-191.071-72.825-263.896 0-72.825 72.825-72.825 191.071 0 263.896l263.896 263.896 263.896-263.896c72.825-72.825 72.825-191.07 0-263.896Z" fill="#FFFFF2"/><path d="M386.655-51.12c-67.223-67.222-176.385-67.222-243.608 0-67.223-67.222-176.385-67.222-243.608 0-67.223 67.224-67.223 176.386 0 243.609l243.608 243.608 243.608-243.608c67.223-67.223 67.223-176.385 0-243.608Z" fill="#C7ABFF"/><path d="M367.124-33.556c-61.924-61.925-162.153-61.925-224.077 0-61.924-61.925-162.153-61.925-224.077 0-61.924 61.923-61.924 162.152 0 224.076l224.077 224.077L367.124 190.52c61.924-61.924 61.924-162.153 0-224.077Z" fill="#9059FF"/><path d="M347.138-14.177c-56.322-56.322-147.619-56.322-203.789 0-56.322-56.322-147.618-56.322-203.79 0-56.321 56.322-56.321 147.618 0 203.789l203.79 203.789 203.789-203.789c56.322-56.322 56.322-147.618 0-203.789Z" fill="#FFABB0"/><path d="M328.364 1.115c-51.174-51.174-134.144-51.174-185.318 0-51.174-51.174-134.143-51.174-185.318 0-51.174 51.175-51.174 134.143 0 185.318l185.318 185.318 185.318-185.318c51.174-51.175 51.174-134.143 0-185.318Z" fill="#C4FCE3"/><path d="M308.532 18.98c-45.724-45.723-119.76-45.723-165.484 0-45.724-45.723-119.76-45.723-165.484 0-45.723 45.724-45.723 119.761 0 165.485l165.484 165.483 165.484-165.483c45.724-45.724 45.724-119.76 0-165.484Z" fill="#F7D5B6"/><path d="M288.091 37.148c-40.122-40.122-105.074-40.122-145.196 0-40.122-40.122-105.074-40.122-145.196 0s-40.122 105.074 0 145.196L142.895 327.54l145.196-145.196c40.121-40.122 40.121-105.074 0-145.196Z" fill="#FFFFF2"/><path d="M268.106 55.165c-34.52-34.52-90.539-34.52-125.059 0-34.52-34.52-90.54-34.52-125.06 0-34.52 34.52-34.52 90.539 0 125.059l125.06 125.059 125.059-125.059c34.52-34.52 34.52-90.54 0-125.06Z" fill="#C7ABFF"/><path d="M249.027 72.274c-29.221-29.22-76.762-29.22-105.983 0-29.22-29.22-76.761-29.22-105.982 0-29.22 29.221-29.22 76.762 0 105.983l105.982 105.982 105.983-105.982c29.221-29.221 29.221-76.762 0-105.983Z" fill="#F7D5B6"/><path d="M229.952 89.383c-24.073-24.073-62.984-24.073-86.906 0-24.073-24.073-62.983-24.073-86.905 0-24.073 24.073-24.073 62.984 0 86.906l86.905 86.905 86.906-86.905c24.073-24.073 24.073-62.984 0-86.906Z" fill="#FFFFF2"/><path d="M209.817 107.399c-18.471-18.471-48.449-18.471-66.92 0-18.471-18.471-48.45-18.471-66.92 0-18.472 18.471-18.472 48.449 0 66.92l66.92 66.921 66.92-66.921c18.471-18.471 18.471-48.449 0-66.92Z" fill="#C7ABFF"/><path d="M189.074 126.023c-12.718-12.718-33.309-12.718-46.027 0-12.717-12.718-33.308-12.718-46.026 0-12.718 12.718-12.718 33.309 0 46.026l46.026 46.027 46.027-46.027c12.718-12.717 12.718-33.308 0-46.026Z" fill="#9059FF"/><path d="M171.813 141.465c-8.024-8.025-20.893-8.025-28.766 0-8.025-8.025-20.894-8.025-28.767 0-7.873 8.024-8.024 20.893 0 28.766l28.767 28.767 28.766-28.767c8.025-8.024 8.025-20.893 0-28.766Z" fill="#FFABB0"/></g><path stroke="#000" stroke-width="3.665" d="M1.879 2.309h282.335v270.93H1.879z"/><defs><clipPath id="a"><path fill="#fff" d="M.047.477h286v274.595h-286z"/></clipPath></defs></svg>
